symbols/web/radio/materialsymbolssharp/radio_wght300grad200_24px.svg

<svg xmlns="http://www.w3.org/2000/svg" height="24" width="24"><path d="M1.7 22.55V6.725L16.1.85l.7 1.75L8.475 6H22.3v16.55Zm2.15-2.15h16.3v-7.075H3.85Zm0-9.225H16V9.1h2.15v2.075h2V8.15H3.85Zm4.075 7.975q.95 0 1.625-.675t.675-1.65q0-.95-.675-1.625t-1.625-.675q-.975 0-1.638.675-.662.675-.662 1.625 0 .975.662 1.65.663.675 1.638.675ZM3.85 13.325V20.4Z"/></svg>

<svg xmlns="http://www.w3.org/2000/svg" height="24" width="24"><path d="M1.7 22.55V6.725L16.1 0.85L16.8 2.6L8.475 6H22.3V22.55ZM3.85 20.4H20.15V13.325H3.85ZM3.85 11.175H16V9.1H18.15V11.175H20.15V8.15H3.85ZM7.925 19.15Q8.875 19.15 9.55 18.475Q10.225 17.8 10.225 16.825Q10.225 15.875 9.55 15.2Q8.875 14.525 7.925 14.525Q6.95 14.525 6.287 15.2Q5.625 15.875 5.625 16.825Q5.625 17.8 6.287 18.475Q6.95 19.15 7.925 19.15ZM3.85 13.325V20.4Z"/></svg>
